X: 20851
T: Friendship
%R: air, waltz
B: James Oswald "The Caledonian Pocket Companion" v.2 p.85 #1
Z: 2019 John Chambers <jc:trillian.mit.edu>
M: 3/4
L: 1/8
K: G
|:"_slow"D2 |\
G2 G2 (dB) | (AG) G2 d2 | e2 E2 (c/B/)A | {G2}TF4 A2 | (Bc)(dB) TAG | e2 d2 (fa) | (gf)(ed)(cB) | {B2}A4 D2 | G2 G2 dB |
AG G2 d2 | (ed)(cB)(AG) | d4 D2 | (3(EFG) G2 B2 | (3(EFG) G2 e2 | (dB)(cA) TG>F | G4 :: (FG) | A2 A2 (3(dcB) | BA A2 B2 |
c2 (3(agf) (3(edc) | {c2}B4 A2 | (3(B^cd) d2 A2 | (3(B^cd) d2 A2 | (Bg)(fe)(d^c) | d4 D2 | G2 (3(GAB) (3(Bcd) | {de}=f4 Ted | (e/d/)B (ge) TdB |
(B2 A2) d2 | (e/f/g) G2 e2 | (dB) c2 (c/d/e) | {e}d2 (cB)(AG) | g4 (fe) | dB c2 (c/d/)e | E2 G2 (ge) | (dB)(cA) (TGF) | G4 :|
